X: 182
T: Ga laohan
L: 1/8
M: 2/4
K: F
d f d c | 
d f d c | 
d4 | 
d2z2 | 
f d d c | 
d2c A | 
G4 | 
G2z2 | 
A/ c/A2c | 
d f d c | 
A2c2 | 
F3G | 
c c c A | 
c2G F | 
D4 | 
D2z2 |]

@@@ Tune index: 8850
